X: 20978
T: Julia Clifford's
R: polka
M: 2/4
K: Dmajor
|:A|f>a ge|ff/a/ ge|fd ed|e/f/e/d/ Bd|
f2 ge|f>a ge|fd e/f/e/c/|d2 d:|
|:d/B/|A>F AB|Af af|ed ef/e/|dA Bd/B/|
A>F AB|Af af|ed ef/e/|d2 d:|

